Dominus_Dark_Funeral/symbolic/apps/preferences-system-symbolic.svg

<svg xmlns="http://www.w3.org/2000/svg" xmlns:xlink="http://www.w3.org/1999/xlink" width="24" height="24" version="1"><defs><linearGradient id="a" x1="64" x2="64" y1="21.94" y2="104.06" gradientUnits="userSpaceOnUse"><stop offset="0" stop-color="#dadada"/><stop offset="1" stop-color="#ccc"/></linearGradient><linearGradient id="b" x1="64" x2="64" y1="21.52" y2="103.07" gradientUnits="userSpaceOnUse" xlink:href="#a"><stop offset="0" stop-color="#d9d9d9"/><stop offset="1" stop-color="#ccc"/></linearGradient></defs><path d="M21.84 4.1a.57.57 0 0 0-.9.54 2.21 2.21 0 0 1-4.04 1.53l2.12-2.92c.37-.5.26-1.21-.24-1.58l-.14-.1a1.13 1.13 0 0 0-1.59.24L14.87 4.8l-3.1-.99a.57.57 0 0 0-.63.87l1.89 2.65L3 21.09a1.13 1.13 0 0 0 .25 1.58l.14.1a1.13 1.13 0 0 0 1.58-.24l10-13.72c.83.22 1.49.9 1.63 1.8a2.27 2.27 0 0 1-1.87 2.55.57.57 0 0 0-.24 1.02 5.04 5.04 0 0 0 3.78.86 6.67 6.67 0 0 0 4.28-2.7 6.71 6.71 0 0 0 1.32-4.46 5.07 5.07 0 0 0-2.03-3.78z" fill="gray"/><path d="M2.09 4a.57.57 0 0 1 .89.54 2.21 2.21 0 0 0 4.05 1.53L4.9 3.15c-.37-.5-.25-1.22.25-1.59l.14-.1a1.13 1.13 0 0 1 1.58.25L9.05 4.7l3.1-.99a.57.57 0 0 1 .63.87L10.9 7.23l10.03 13.76a1.13 1.13 0 0 1-.25 1.58l-.14.1a1.13 1.13 0 0 1-1.59-.24L8.95 8.7c-.82.21-1.48.9-1.62 1.8a2.27 2.27 0 0 0 1.86 2.55.57.57 0 0 1 .25 1.02 5.04 5.04 0 0 1-3.78.86 6.67 6.67 0 0 1-4.29-2.7A6.71 6.71 0 0 1 .06 7.78a5.07 5.07 0 0 1 2.03-3.79z" fill="gray"/></svg>

<?xml version="1.0" encoding="UTF-8" standalone="no"?>
<svg
   xmlns:dc="http://purl.org/dc/elements/1.1/"
   xmlns:cc="http://creativecommons.org/ns#"
   xmlns:rdf="http://www.w3.org/1999/02/22-rdf-syntax-ns#"
   xmlns:svg="http://www.w3.org/2000/svg"
   xmlns="http://www.w3.org/2000/svg"
   xmlns:xlink="http://www.w3.org/1999/xlink"
   xmlns:sodipodi="http://sodipodi.sourceforge.net/DTD/sodipodi-0.dtd"
   xmlns:inkscape="http://www.inkscape.org/namespaces/inkscape"
   width="24"
   height="24"
   version="1"
   id="svg18"
   sodipodi:docname="preferences-system-symbolic.svg"
   inkscape:version="0.92.4 (5da689c313, 2019-01-14)">
  <metadata
     id="metadata22">
    <rdf:RDF>
      <cc:Work
         rdf:about="">
        <dc:format>image/svg+xml</dc:format>
        <dc:type
           rdf:resource="http://purl.org/dc/dcmitype/StillImage" />
        <dc:title></dc:title>
      </cc:Work>
    </rdf:RDF>
  </metadata>
  <sodipodi:namedview
     pagecolor="#ffffff"
     bordercolor="#666666"
     borderopacity="1"
     objecttolerance="10"
     gridtolerance="10"
     guidetolerance="10"
     inkscape:pageopacity="0"
     inkscape:pageshadow="2"
     inkscape:window-width="1112"
     inkscape:window-height="480"
     id="namedview20"
     showgrid="false"
     inkscape:zoom="9.8333333"
     inkscape:cx="1.0677966"
     inkscape:cy="12"
     inkscape:window-x="0"
     inkscape:window-y="25"
     inkscape:window-maximized="0"
     inkscape:current-layer="svg18" />
  <defs
     id="defs12">
    <linearGradient
       id="a"
       x1="64"
       x2="64"
       y1="21.94"
       y2="104.06"
       gradientUnits="userSpaceOnUse">
      <stop
         offset="0"
         stop-color="#dadada"
         id="stop2" />
      <stop
         offset="1"
         stop-color="#ccc"
         id="stop4" />
    </linearGradient>
    <linearGradient
       id="b"
       x1="64"
       x2="64"
       y1="21.52"
       y2="103.07"
       gradientUnits="userSpaceOnUse"
       xlink:href="#a">
      <stop
         offset="0"
         stop-color="#d9d9d9"
         id="stop7" />
      <stop
         offset="1"
         stop-color="#ccc"
         id="stop9" />
    </linearGradient>
  </defs>
  <path
     d="M 21.84,4.1 A 0.57,0.57 0 0 0 20.94,4.64 2.21,2.21 0 0 1 16.9,6.17 L 19.02,3.25 C 19.39,2.75 19.28,2.04 18.78,1.67 L 18.64,1.57 A 1.13,1.13 0 0 0 17.05,1.81 L 14.87,4.8 11.77,3.81 A 0.57,0.57 0 0 0 11.14,4.68 L 13.03,7.33 3,21.09 a 1.13,1.13 0 0 0 0.25,1.58 l 0.14,0.1 a 1.13,1.13 0 0 0 1.58,-0.24 l 10,-13.72 c 0.83,0.22 1.49,0.9 1.63,1.8 a 2.27,2.27 0 0 1 -1.87,2.55 0.57,0.57 0 0 0 -0.24,1.02 5.04,5.04 0 0 0 3.78,0.86 6.67,6.67 0 0 0 4.28,-2.7 6.71,6.71 0 0 0 1.32,-4.46 5.07,5.07 0 0 0 -2.03,-3.78 z"
     id="path14"
     inkscape:connector-curvature="0"
     style="fill:#808080" />
  <path
     d="M 2.09,4 A 0.57,0.57 0 0 1 2.98,4.54 2.21,2.21 0 0 0 7.03,6.07 L 4.9,3.15 C 4.53,2.65 4.65,1.93 5.15,1.56 l 0.14,-0.1 a 1.13,1.13 0 0 1 1.58,0.25 l 2.18,2.99 3.1,-0.99 a 0.57,0.57 0 0 1 0.63,0.87 L 10.9,7.23 20.93,20.99 a 1.13,1.13 0 0 1 -0.25,1.58 l -0.14,0.1 A 1.13,1.13 0 0 1 18.95,22.43 L 8.95,8.7 C 8.13,8.91 7.47,9.6 7.33,10.5 A 2.27,2.27 0 0 0 9.19,13.05 0.57,0.57 0 0 1 9.44,14.07 5.04,5.04 0 0 1 5.66,14.93 6.67,6.67 0 0 1 1.37,12.23 6.71,6.71 0 0 1 0.06,7.78 5.07,5.07 0 0 1 2.09,3.99 Z"
     id="path16"
     inkscape:connector-curvature="0"
     style="fill:#808080" />
</svg>
